assets/icons/meeting_icon.svg

<svg width="24" height="24" viewBox="0 0 24 24" fill="none" xmlns="http://www.w3.org/2000/svg">
<path fill-rule="evenodd" clip-rule="evenodd" d="M12.024 3.50195C18.98 3.50195 21.299 5.81995 21.299 12.776C21.299 19.732 18.98 22.05 12.024 22.05C5.069 22.05 2.75 19.732 2.75 12.776C2.75 5.81995 5.069 3.50195 12.024 3.50195Z" stroke="white" stroke-width="1.5" stroke-linecap="round" stroke-linejoin="round"/>
<path d="M3.02539 9.32422H21.0334" stroke="white" stroke-width="1.5" stroke-linecap="round" stroke-linejoin="round"/>
<path d="M16.4286 13.2617H16.4376" stroke="white" stroke-width="1.5" stroke-linecap="round" stroke-linejoin="round"/>
<path d="M12.0292 13.2617H12.0382" stroke="white" stroke-width="1.5" stroke-linecap="round" stroke-linejoin="round"/>
<path d="M7.62148 13.2617H7.63048" stroke="white" stroke-width="1.5" stroke-linecap="round" stroke-linejoin="round"/>
<path d="M16.4286 17.1133H16.4376" stroke="white" stroke-width="1.5" stroke-linecap="round" stroke-linejoin="round"/>
<path d="M12.0292 17.1133H12.0382" stroke="white" stroke-width="1.5" stroke-linecap="round" stroke-linejoin="round"/>
<path d="M7.62148 17.1133H7.63048" stroke="white" stroke-width="1.5" stroke-linecap="round" stroke-linejoin="round"/>
<path d="M16.0332 2.05078V5.31278" stroke="white" stroke-width="1.5" stroke-linecap="round" stroke-linejoin="round"/>
<path d="M8.0249 2.05078V5.31278" stroke="white" stroke-width="1.5" stroke-linecap="round" stroke-linejoin="round"/>
</svg>

<svg width="24" height="24" fill="none" xmlns="http://www.w3.org/2000/svg"><path clip-rule="evenodd" d="M12.024 3.502c6.956 0 9.275 2.318 9.275 9.274 0 6.956-2.319 9.274-9.275 9.274-6.955 0-9.274-2.318-9.274-9.274 0-6.956 2.319-9.274 9.274-9.274z" stroke="#fff" stroke-width="1.5" stroke-linecap="round" stroke-linejoin="round"/><path d="M3.025 9.324h18.008M16.429 13.262h.009M12.03 13.262h.008M7.621 13.262h.01M16.429 17.113h.009M12.03 17.113h.008M7.621 17.113h.01M16.033 2.05v3.263M8.025 2.05v3.263" stroke="#fff" stroke-width="1.5" stroke-linecap="round" stroke-linejoin="round"/></svg>
